;FLAVOR:UltiGCode
;TIME:10005
;MATERIAL:11502
;MATERIAL2:0
;NOZZLE_DIAMETER:0.4
;MINX:68.373
;MINY:88.11
;MINZ:0.27
;MAXX:155.038
;MAXY:134.89
;MAXZ:21.37
;Generated with Cura_SteamEngine 5.2.2
M82 ;absolute extrusion mode
G0 F3000 Y50 ;avoid prime blob
G92 E0
G92 E0
G10
;LAYER_COUNT:212
;LAYER:0
M107
G0 F7200 X73.787 Y92.781 Z0.27
;TYPE:SKIRT
G11
G1 F1800 X74.567 Y92.183 E0.10615
G1 X75.239 Y91.768 E0.19145
G1 X75.95 Y91.424 E0.27675
G1 X76.691 Y91.153 E0.36196
G1 X77.457 Y90.958 E0.44733
G1 X78.238 Y90.842 E0.5326
G1 X79.026 Y90.805 E0.6178
G1 X79.815 Y90.848 E0.70314
G1 X80.895 Y91.018 E0.82122
G1 X81.614 Y90.262 E0.93389
G1 X82.213 Y89.747 E1.01921
G1 X82.86 Y89.295 E1.10445
G1 X83.55 Y88.911 E1.18973
G1 X84.276 Y88.599 E1.27507
G1 X85.029 Y88.361 E1.36036
G1 X85.802 Y88.201 E1.44562
G1 X86.696 Y88.11 E1.54267
G1 X89.022 Y88.11 E1.79387
G1 X89.811 Y88.15 E1.8792
G1 X90.591 Y88.269 E1.96441
G1 X91.356 Y88.467 E2.04975
G1 X92.096 Y88.741 E2.13498
G1 X92.805 Y89.089 E2.22027
G1 X93.476 Y89.507 E2.30565
G1 X93.984 Y89.9 E2.37502
G1 X94.307 Y89.761 E2.413
G1 X95.06 Y89.524 E2.49825
G1 X95.833 Y89.364 E2.58351
G1 X96.86 Y89.275 E2.69484
G1 X98.895 Y89.233 E2.91466
G1 X115.354 Y89.03 E4.69237
G1 X117.705 Y89.03 E4.94628
G1 X122.768 Y89.068 E5.4931
G1 X123.556 Y89.114 E5.57835
G1 X124.336 Y89.239 E5.66366
G1 X125.099 Y89.443 E5.74896
G1 X125.921 Y89.755 E5.84392
G1 X126.578 Y89.294 E5.9306
G1 X127.268 Y88.91 E6.01588
G1 X127.994 Y88.598 E6.10122
G1 X128.747 Y88.361 E6.18648
G1 X129.521 Y88.201 E6.27184
G1 X130.403 Y88.11 E6.3676
G1 X132.74 Y88.11 E6.62
G1 X133.529 Y88.15 E6.70532
G1 X134.309 Y88.269 E6.79053
G1 X135.074 Y88.467 E6.87588
G1 X135.814 Y88.741 E6.9611
G1 X136.523 Y89.089 E7.0464
G1 X137.194 Y89.507 E7.13178
G1 X137.853 Y90.016 E7.22171
G1 X138.778 Y89.725 E7.32643
G1 X139.551 Y89.565 E7.41169
G1 X140.337 Y89.484 E7.49702
G1 X140.983 Y89.478 E7.56679
G1 X146.238 Y89.642 E8.13461
G1 X147.025 Y89.706 E8.21989
G1 X147.802 Y89.85 E8.30523
G1 X148.56 Y90.072 E8.39053
G1 X149.291 Y90.369 E8.47575
G1 X149.989 Y90.738 E8.56102
G1 X150.646 Y91.177 E8.64636
G1 X151.256 Y91.679 E8.73168
G1 X151.904 Y92.334 E8.83119
G1 X152.753 Y93.412 E8.97938
G1 X153.621 Y94.648 E9.1425
G1 X154.041 Y95.316 E9.22772
G1 X154.392 Y96.024 E9.31306
G1 X154.669 Y96.763 E9.3983
G1 X154.87 Y97.527 E9.48362
G1 X154.993 Y98.307 E9.5689
G1 X155.037 Y99.13 E9.65791
G1 X155.038 Y123.868 E12.32961
G1 X154.998 Y124.656 E12.41483
G1 X154.879 Y125.437 E12.50015
G1 X154.681 Y126.201 E12.58539
G1 X154.407 Y126.942 E12.67071
G1 X154.059 Y127.651 E12.75601
G1 X153.613 Y128.363 E12.84675
G1 X152.75 Y129.586 E13.0084
G1 X152.133 Y130.374 E13.11649
G1 X151.615 Y130.97 E13.20177
G1 X151.039 Y131.51 E13.28704
G1 X150.412 Y131.99 E13.37232
G1 X149.74 Y132.404 E13.45757
G1 X149.029 Y132.747 E13.54282
G1 X148.286 Y133.018 E13.62824
G1 X147.521 Y133.211 E13.71345
G1 X146.74 Y133.326 E13.79871
G1 X146.236 Y133.358 E13.85325
G1 X140.983 Y133.521 E14.42084
G1 X140.193 Y133.506 E14.50618
G1 X139.409 Y133.411 E14.59147
G1 X138.639 Y133.236 E14.67675
G1 X137.853 Y132.968 E14.76644
G1 X137.52 Y133.255 E14.81392
G1 X136.872 Y133.706 E14.89918
G1 X136.182 Y134.09 E14.98446
G1 X135.456 Y134.402 E15.06981
G1 X134.703 Y134.639 E15.15506
G1 X133.929 Y134.799 E15.24042
G1 X133.047 Y134.89 E15.33618
G1 X130.71 Y134.89 E15.58858
G1 X129.921 Y134.85 E15.6739
G1 X129.141 Y134.731 E15.75912
G1 X128.376 Y134.533 E15.84446
G1 X127.636 Y134.259 E15.92968
G1 X126.927 Y133.911 E16.01498
G1 X126.256 Y133.493 E16.10036
G1 X125.919 Y133.233 E16.14633
G1 X125.425 Y133.445 E16.20439
G1 X124.672 Y133.682 E16.28964
G1 X123.899 Y133.842 E16.3749
G1 X122.767 Y133.933 E16.49755
G1 X117.682 Y133.97 E17.04674
G1 X115.167 Y133.969 E17.31836
G1 X98.498 Y133.76 E19.11876
G1 X96.861 Y133.726 E19.29559
G1 X96.073 Y133.67 E19.38091
G1 X95.295 Y133.534 E19.46621
G1 X94.535 Y133.321 E19.55145
G1 X94.007 Y133.113 E19.61274
G1 X93.154 Y133.706 E19.72494
G1 X92.464 Y134.09 E19.81022
G1 X91.738 Y134.402 E19.89556
G1 X90.985 Y134.639 E19.98082
G1 X90.211 Y134.799 E20.06618
G1 X89.329 Y134.89 E20.16194
G1 X86.993 Y134.89 E20.41423
G1 X86.204 Y134.85 E20.49955
G1 X85.424 Y134.731 E20.58476
G1 X84.659 Y134.533 E20.67011
G1 X83.919 Y134.259 E20.75533
G1 X83.21 Y133.911 E20.84063
G1 X82.539 Y133.493 E20.92601
G1 X81.915 Y133.01 E21.01123
G1 X81.342 Y132.467 E21.09648
G1 X80.895 Y131.948 E21.17046
G1 X80.182 Y132.095 E21.24908
G1 X79.397 Y132.176 E21.33431
G1 X78.607 Y132.176 E21.41963
G1 X77.821 Y132.097 E21.50495
G1 X77.048 Y131.94 E21.59014
G1 X76.294 Y131.704 E21.67547
G1 X75.568 Y131.394 E21.76072
G1 X74.877 Y131.011 E21.84605
G1 X73.834 Y130.252 E21.98536
G1 X73.105 Y129.568 E22.09332
G1 X72.459 Y128.805 E22.20129
G1 X71.85 Y127.984 E22.31169
G1 X71.563 Y127.569 E22.36619
G1 X70.704 Y126.239 E22.53718
G1 X70.278 Y125.493 E22.62996
G1 X69.755 Y124.446 E22.75636
G1 X69.472 Y123.808 E22.83174
G1 X68.913 Y122.383 E22.99706
G1 X68.662 Y121.635 E23.08227
G1 X68.488 Y120.864 E23.16763
G1 X68.393 Y120.08 E23.25292
G1 X68.374 Y119.535 E23.31182
G1 X68.373 Y103.472 E25.04662
G1 X68.413 Y102.684 E25.13183
G1 X68.532 Y101.903 E25.21716
G1 X68.73 Y101.139 E25.30239
G1 X68.906 Y100.638 E25.35974
G1 X69.711 Y98.579 E25.59851
G1 X70.037 Y97.86 E25.68377
G1 X70.421 Y97.196 E25.76661
G1 X71.678 Y95.252 E26.01663
G1 X72.456 Y94.197 E26.1582
G1 X72.956 Y93.586 E26.24346
G1 X73.787 Y92.781 E26.36842
G0 F7200 X74.051 Y93.082
G1 F1800 X74.811 Y92.501 E26.47173
G1 X75.467 Y92.1 E26.55477
G1 X76.161 Y91.769 E26.63781
G1 X76.886 Y91.512 E26.72089
G1 X77.634 Y91.331 E26.804
G1 X78.396 Y91.229 E26.88703
G1 X79.165 Y91.207 E26.97012
G1 X79.932 Y91.265 E27.05319
G1 X80.689 Y91.402 E27.13627
G1 X81.051 Y91.507 E27.17698
G1 X81.466 Y90.989 E27.24866
G1 X82.007 Y90.442 E27.33175
G1 X82.601 Y89.954 E27.41478
G1 X83.243 Y89.53 E27.49787
G1 X83.926 Y89.176 E27.58095
G1 X84.641 Y88.894 E27.66396
G1 X85.382 Y88.687 E27.74706
G1 X86.141 Y88.559 E27.83018
G1 X86.993 Y88.51 E27.92235
G1 X89.022 Y88.51 E28.14149
G1 X89.79 Y88.55 E28.22454
G1 X90.55 Y88.669 E28.30762
G1 X91.293 Y88.867 E28.39067
G1 X92.012 Y89.141 E28.47377
G1 X92.698 Y89.488 E28.55679
G1 X93.345 Y89.904 E28.63987
G1 X93.914 Y90.36 E28.71862
G1 X94.672 Y90.056 E28.80682
G1 X95.413 Y89.85 E28.88988
G1 X96.172 Y89.722 E28.97301
G1 X96.868 Y89.675 E29.04835
G1 X98.9 Y89.633 E29.26785
G1 X115.354 Y89.43 E31.04502
G1 X117.702 Y89.43 E31.2986
G1 X122.765 Y89.468 E31.84542
G1 X123.532 Y89.514 E31.92841
G1 X124.291 Y89.639 E32.01149
G1 X125.033 Y89.842 E32.09457
G1 X125.996 Y90.218 E32.20622
G1 X126.319 Y89.953 E32.25134
G1 X126.961 Y89.529 E32.33443
G1 X127.644 Y89.175 E32.41751
G1 X128.359 Y88.893 E32.50052
G1 X129.1 Y88.687 E32.58359
G1 X129.859 Y88.559 E32.66672
G1 X130.709 Y88.51 E32.75867
G1 X132.74 Y88.51 E32.97802
G1 X133.508 Y88.55 E33.06107
G1 X134.268 Y88.669 E33.14415
G1 X135.011 Y88.867 E33.2272
G1 X135.73 Y89.141 E33.3103
G1 X136.416 Y89.488 E33.39332
G1 X137.063 Y89.904 E33.4764
G1 X137.795 Y90.491 E33.57773
G1 X138.39 Y90.257 E33.64678
G1 X139.131 Y90.051 E33.72985
G1 X139.89 Y89.923 E33.81298
G1 X140.971 Y89.878 E33.92983
G1 X146.226 Y90.042 E34.49764
G1 X146.992 Y90.106 E34.58066
G1 X147.748 Y90.249 E34.66375
G1 X148.485 Y90.469 E34.74682
G1 X149.195 Y90.766 E34.82994
G1 X149.87 Y91.134 E34.91297
G1 X150.503 Y91.57 E34.99598
G1 X151.088 Y92.07 E35.07909
G1 X151.808 Y92.859 E35.19445
G1 X152.428 Y93.647 E35.30274
G1 X153.293 Y94.878 E35.46523
G1 X153.702 Y95.529 E35.54826
G1 X154.041 Y96.22 E35.63139
G1 X154.306 Y96.942 E35.71445
G1 X154.495 Y97.687 E35.79746
G1 X154.606 Y98.448 E35.88051
G1 X154.637 Y99.13 E35.95425
G1 X154.638 Y123.868 E38.62595
G1 X154.598 Y124.636 E38.70901
G1 X154.479 Y125.396 E38.79209
G1 X154.281 Y126.139 E38.87513
G1 X154.007 Y126.858 E38.95823
G1 X153.66 Y127.544 E39.04126
G1 X153.286 Y128.133 E39.11661
G1 X152.435 Y129.34 E39.27611
G1 X151.818 Y130.127 E39.38411
G1 X151.313 Y130.707 E39.46717
G1 X150.75 Y131.231 E39.55023
G1 X150.136 Y131.694 E39.63329
G1 X149.477 Y132.091 E39.71638
G1 X148.781 Y132.417 E39.79938
G1 X148.054 Y132.669 E39.88248
G1 X147.305 Y132.845 E39.96557
G1 X146.224 Y132.958 E40.08296
G1 X140.971 Y133.121 E40.65056
G1 X140.202 Y133.105 E40.73363
G1 X139.438 Y133.009 E40.81679
G1 X138.689 Y132.835 E40.89983
G1 X137.775 Y132.519 E41.00428
G1 X137.131 Y133.047 E41.09422
G1 X136.489 Y133.471 E41.17731
G1 X135.806 Y133.825 E41.26039
G1 X135.091 Y134.107 E41.3434
G1 X134.35 Y134.313 E41.42647
G1 X133.591 Y134.441 E41.5096
G1 X132.741 Y134.49 E41.60155
G1 X130.71 Y134.49 E41.8209
G1 X129.942 Y134.45 E41.90395
G1 X129.182 Y134.331 E41.98703
G1 X128.439 Y134.133 E42.07008
G1 X127.72 Y133.859 E42.15318
G1 X127.034 Y133.512 E42.2362
G1 X126.387 Y133.096 E42.31928
G1 X125.994 Y132.781 E42.37367
G1 X125.06 Y133.15 E42.48213
G1 X124.319 Y133.356 E42.56519
G1 X123.56 Y133.484 E42.64832
G1 X122.764 Y133.533 E42.73445
G1 X117.679 Y133.57 E43.28365
G1 X115.172 Y133.569 E43.5544
G1 X98.506 Y133.36 E45.35447
G1 X96.869 Y133.326 E45.53131
G1 X96.102 Y133.27 E45.61436
G1 X95.345 Y133.135 E45.69741
G1 X94.606 Y132.922 E45.78047
G1 X93.91 Y132.64 E45.86158
G1 X93.413 Y133.047 E45.93095
G1 X92.771 Y133.471 E46.01405
G1 X92.088 Y133.825 E46.09713
G1 X91.373 Y134.107 E46.18014
G1 X90.632 Y134.313 E46.2632
G1 X89.873 Y134.441 E46.34633
G1 X89.023 Y134.49 E46.43828
G1 X86.993 Y134.49 E46.65752
G1 X86.225 Y134.45 E46.74058
G1 X85.465 Y134.331 E46.82366
G1 X84.722 Y134.133 E46.9067
G1 X84.003 Y133.859 E46.9898
G1 X83.317 Y133.512 E47.07283
G1 X82.67 Y133.096 E47.1559
G1 X82.07 Y132.615 E47.23896
G1 X81.523 Y132.074 E47.32204
G1 X81.041 Y131.487 E47.40407
G1 X80.602 Y131.609 E47.45328
G1 X79.844 Y131.737 E47.53631
G1 X79.076 Y131.786 E47.61942
G1 X78.308 Y131.754 E47.70243
G1 X77.547 Y131.643 E47.78549
G1 X76.801 Y131.454 E47.86861
G1 X76.079 Y131.188 E47.95171
G1 X75.389 Y130.849 E48.03473
G1 X74.738 Y130.44 E48.11777
G1 X74.06 Y129.916 E48.21031
G1 X73.379 Y129.276 E48.31124
G1 X72.781 Y128.567 E48.41141
G1 X72.029 Y127.553 E48.54775
G1 X71.04 Y126.022 E48.7446
G1 X70.636 Y125.314 E48.83264
G1 X70.113 Y124.267 E48.95904
G1 X69.844 Y123.662 E49.03054
G1 X69.285 Y122.237 E49.19586
G1 X69.042 Y121.508 E49.27885
G1 X68.876 Y120.757 E49.36192
G1 X68.774 Y119.872 E49.45813
G1 X68.773 Y103.472 E51.22933
G1 X68.813 Y102.704 E51.31239
G1 X68.932 Y101.945 E51.39536
G1 X69.161 Y101.086 E51.49137
G1 X70.083 Y98.725 E51.76511
G1 X70.401 Y98.025 E51.84815
G1 X70.757 Y97.413 E51.92461
G1 X72.011 Y95.474 E52.174
G1 X72.777 Y94.435 E52.31341
G1 X73.266 Y93.84 E52.39659
G1 X74.051 Y93.082 E52.51444
G0 F7200 X74.312 Y93.385
G1 F1800 X75.054 Y92.819 E52.61523
G1 X75.693 Y92.432 E52.69592
G1 X76.371 Y92.115 E52.77675
G1 X77.079 Y91.872 E52.85759
G1 X77.808 Y91.706 E52.93834
G1 X78.551 Y91.619 E53.01913
G1 X79.299 Y91.612 E53.09992
G1 X80.044 Y91.684 E53.18075
G1 X80.776 Y91.836 E53.26149
G1 X81.182 Y91.966 E53.30754
G1 X81.861 Y91.149 E53.42227
G1 X82.399 Y90.629 E53.50308
G1 X82.989 Y90.168 E53.58394
G1 X83.624 Y89.774 E53.66465
G1 X84.298 Y89.449 E53.74546
G1 X85.003 Y89.199 E53.82625
G1 X85.731 Y89.025 E53.90709
G1 X86.473 Y88.929 E53.98789
G1 X86.993 Y88.91 E54.04409
G1 X89.022 Y88.91 E54.26322
G1 X89.769 Y88.95 E54.34401
G1 X90.507 Y89.069 E54.42474
G1 X91.229 Y89.267 E54.5056
G1 X91.925 Y89.54 E54.58634
G1 X92.588 Y89.887 E54.66716
G1 X93.211 Y90.302 E54.74801
G1 X93.855 Y90.84 E54.83863
G1 X94.329 Y90.612 E54.89544
G1 X95.034 Y90.361 E54.97626
G1 X95.762 Y90.187 E55.0571
G1 X96.876 Y90.075 E55.17802
G1 X98.905 Y90.033 E55.3972
G1 X115.354 Y89.83 E57.17383
G1 X117.699 Y89.83 E57.42709
G1 X122.762 Y89.868 E57.97391
G1 X123.508 Y89.914 E58.05463
G1 X124.246 Y90.039 E58.13547
G1 X124.966 Y90.242 E58.21626
G1 X125.66 Y90.52 E58.297
G1 X126.012 Y90.708 E58.3401
G1 X126.706 Y90.167 E58.43513
G1 X127.342 Y89.773 E58.51593
G1 X128.016 Y89.449 E58.5967
G1 X128.721 Y89.198 E58.67752
G1 X129.449 Y89.024 E58.75836
G1 X130.191 Y88.929 E58.83915
G1 X130.709 Y88.91 E58.89513
G1 X132.74 Y88.91 E59.11448
G1 X133.487 Y88.95 E59.19527
G1 X134.225 Y89.069 E59.276
G1 X134.947 Y89.267 E59.35686
G1 X135.643 Y89.54 E59.4376
G1 X136.306 Y89.887 E59.51842
G1 X136.929 Y90.302 E59.59927
G1 X137.726 Y90.967 E59.71137
G1 X138.047 Y90.813 E59.74982
G1 X138.752 Y90.562 E59.83064
G1 X139.479 Y90.388 E59.91138
G1 X140.221 Y90.293 E59.99217
G1 X140.958 Y90.277 E60.07178
G1 X146.213 Y90.441 E60.6396
G1 X146.959 Y90.505 E60.72046
G1 X147.693 Y90.647 E60.8012
G1 X148.408 Y90.867 E60.882
G1 X149.096 Y91.162 E60.96284
G1 X149.748 Y91.529 E61.04365
G1 X150.357 Y91.963 E61.12441
G1 X150.916 Y92.46 E61.20519
G1 X151.494 Y93.107 E61.29889
G1 X152.118 Y93.899 E61.40779
G1 X152.966 Y95.107 E61.56719
G1 X153.362 Y95.742 E61.64801
G1 X153.689 Y96.415 E61.72882
G1 X153.942 Y97.119 E61.80961
G1 X154.118 Y97.846 E61.8904
G1 X154.216 Y98.587 E61.97112
G1 X154.237 Y99.13 E62.02981
G1 X154.238 Y123.868 E64.70151
G1 X154.198 Y124.615 E64.78231
G1 X154.079 Y125.353 E64.86304
G1 X153.881 Y126.075 E64.94389
G1 X153.608 Y126.771 E65.02464
G1 X153.262 Y127.434 E65.10541
G1 X152.959 Y127.902 E65.16562
G1 X152.113 Y129.102 E65.32419
G1 X151.503 Y129.88 E65.43096
G1 X151.011 Y130.443 E65.51171
G1 X150.462 Y130.951 E65.59249
G1 X149.861 Y131.397 E65.67332
G1 X149.216 Y131.776 E65.75411
G1 X148.535 Y132.085 E65.83488
G1 X147.824 Y132.319 E65.91572
G1 X147.093 Y132.475 E65.99645
G1 X146.211 Y132.559 E66.09213
G1 X140.958 Y132.722 E66.65973
G1 X140.21 Y132.705 E66.74053
G1 X139.468 Y132.608 E66.82135
G1 X138.741 Y132.433 E66.90211
G1 X138.037 Y132.182 E66.98283
G1 X137.7 Y132.019 E67.02326
G1 X137.334 Y132.373 E67.07825
G1 X136.744 Y132.833 E67.15905
G1 X136.108 Y133.227 E67.23985
G1 X135.434 Y133.551 E67.32062
G1 X134.729 Y133.802 E67.40144
G1 X134.001 Y133.976 E67.48228
G1 X133.259 Y134.071 E67.56307
G1 X132.741 Y134.09 E67.61905
G1 X130.71 Y134.09 E67.8384
G1 X129.963 Y134.05 E67.91919
G1 X129.225 Y133.931 E67.99992
G1 X128.503 Y133.733 E68.08078
G1 X127.807 Y133.46 E68.16152
G1 X127.144 Y133.113 E68.24234
G1 X126.521 Y132.698 E68.32318
G1 X126.033 Y132.291 E68.39181
G1 X125.403 Y132.594 E68.46731
G1 X124.698 Y132.845 E68.54813
G1 X123.97 Y133.019 E68.62897
G1 X123.099 Y133.131 E68.72382
G1 X117.676 Y133.17 E69.30952
G1 X115.177 Y133.169 E69.57941
G1 X98.515 Y132.96 E71.37904
G1 X96.878 Y132.926 E71.55588
G1 X96.132 Y132.871 E71.63667
G1 X95.396 Y132.736 E71.71748
G1 X94.679 Y132.524 E71.79823
G1 X93.86 Y132.183 E71.89404
G1 X93.026 Y132.833 E72.00824
G1 X92.39 Y133.227 E72.08904
G1 X91.716 Y133.551 E72.16981
G1 X91.011 Y133.802 E72.25063
G1 X90.283 Y133.976 E72.33147
G1 X89.541 Y134.071 E72.41226
G1 X89.023 Y134.09 E72.46824
G1 X86.993 Y134.09 E72.68748
G1 X86.246 Y134.05 E72.76827
G1 X85.508 Y133.931 E72.849
G1 X84.786 Y133.733 E72.92986
G1 X84.09 Y133.46 E73.0106
G1 X83.427 Y133.113 E73.09142
G1 X82.804 Y132.698 E73.17226
G1 X82.23 Y132.219 E73.25301
G1 X81.709 Y131.682 E73.33381
G1 X81.212 Y131.043 E73.42124
G1 X80.254 Y131.271 E73.5276
G1 X79.512 Y131.367 E73.6084
G1 X78.764 Y131.382 E73.6892
G1 X78.019 Y131.318 E73.76996
G1 X77.285 Y131.174 E73.85074
G1 X76.57 Y130.953 E73.93156
G1 X75.883 Y130.657 E74.01235
G1 X75.232 Y130.29 E74.09306
G1 X74.341 Y129.633 E74.21262
G1 X73.654 Y128.984 E74.31469
G1 X73.102 Y128.328 E74.40729
G1 X72.356 Y127.322 E74.54255
G1 X71.376 Y125.805 E74.7376
G1 X70.994 Y125.135 E74.82089
G1 X70.471 Y124.088 E74.94729
G1 X70.216 Y123.516 E75.01493
G1 X69.657 Y122.091 E75.18024
G1 X69.422 Y121.381 E75.26102
G1 X69.263 Y120.65 E75.34181
G1 X69.174 Y119.535 E75.46261
G1 X69.173 Y103.472 E77.19742
G1 X69.213 Y102.725 E77.27821
G1 X69.332 Y101.987 E77.35894
G1 X69.652 Y100.928 E77.47842
G1 X70.456 Y98.872 E77.71684
G1 X70.766 Y98.191 E77.79765
G1 X71.093 Y97.63 E77.86778
G1 X72.341 Y95.699 E78.11609
G1 X73.099 Y94.672 E78.25395
G1 X73.575 Y94.095 E78.33473
G1 X74.312 Y93.385 E78.44526
G0 F7200 X74.574 Y93.687
G1 F1800 X75.296 Y93.138 E78.54322
G1 X75.919 Y92.765 E78.62164
G1 X76.58 Y92.462 E78.70017
G1 X77.269 Y92.234 E78.77855
G1 X77.98 Y92.083 E78.85705
G1 X78.703 Y92.011 E78.93552
